X: 43276
T: Wood Point
R: jig
M: 6/8
K: Dmixolydian
~D3 GAc|GAc dea|ged ^cAG|E/F/GA cGE|
~D3 GAc|GAc dea|ged ^cAc|1 de^c dAE:|2 de^c def||
geB ceg|afe d2 D|E/F/GA cGA|dAc def|
geB ceg|afe d2 d|^cAG E/F/GA|=cGE D2 f|
geB ceg|afe d2 D|E/F/GA cGA|dAc def|
g/f/ea fdD|E/F/GA ced|^cAG E/F/GA|cGE ~D3||

